X:1
T:Neil Gow's House
T:Neil Gow's House
T:Alexander Walker
C:Alexander Walker
L:1/8
M:4/4
K:D
V:1 treble 
V:1
 A, | D>AF>A B,<DC<A, | D>FA>F B3 c | d<fd>A B<d A>F | E>DF>E D3 :| e | d>fa>f (b/a/)g/f/ a2 | %7
 g>ef>d e<EE>G | F>DA>F G>E e>d | c>AB>c d<DD>g | f/g/a/f/ d>g b>ga>g | f/g/a/f/ d>f e<EE>c | %12
 d>fc>e B>d A>F | C<A,E>C (D2 D) || %14

